svgs/thin/transporter-3.svg

<svg xmlns="http://www.w3.org/2000/svg" viewBox="0 0 512 512"><!-- Font Awesome Pro 6.0.0-alpha2 by @fontawesome - https://fontawesome.com License - https://fontawesome.com/license (Commercial License) --><path d="M192 144H320C324.406 144 328 140.422 328 136S324.406 128 320 128H192C187.594 128 184 131.578 184 136S187.594 144 192 144ZM256 96C282.5 96 304 74.5 304 48S282.5 0 256 0S208 21.5 208 48S229.5 96 256 96ZM256 16C273.645 16 288 30.355 288 48S273.645 80 256 80S224 65.645 224 48S238.355 16 256 16ZM504 40H472V8C472 3.578 468.406 0 464 0S456 3.578 456 8V40H424C419.594 40 416 43.578 416 48S419.594 56 424 56H456V88C456 92.422 459.594 96 464 96S472 92.422 472 88V56H504C508.406 56 512 52.422 512 48S508.406 40 504 40ZM136 208H376C380.406 208 384 204.422 384 200S380.406 192 376 192H136C131.594 192 128 195.578 128 200S131.594 208 136 208ZM192 336H320C324.406 336 328 332.422 328 328S324.406 320 320 320H192C187.594 320 184 323.578 184 328S187.594 336 192 336ZM408 256H104C99.594 256 96 259.578 96 264S99.594 272 104 272H408C412.406 272 416 268.422 416 264S412.406 256 408 256ZM192 400H320C324.406 400 328 396.422 328 392S324.406 384 320 384H192C187.594 384 184 387.578 184 392S187.594 400 192 400ZM376 448H136C113.938 448 96 465.938 96 488V504C96 508.422 99.594 512 104 512S112 508.422 112 504V488C112 474.766 122.781 464 136 464H376C389.219 464 400 474.766 400 488V504C400 508.422 403.594 512 408 512S416 508.422 416 504V488C416 465.938 398.062 448 376 448ZM88 136H56V104C56 99.578 52.406 96 48 96S40 99.578 40 104V136H8C3.594 136 0 139.578 0 144S3.594 152 8 152H40V184C40 188.422 43.594 192 48 192S56 188.422 56 184V152H88C92.406 152 96 148.422 96 144S92.406 136 88 136Z"/></svg>

<svg xmlns="http://www.w3.org/2000/svg" viewBox="0 0 512 512"><!--! Font Awesome Pro 6.3.0 by @fontawesome - https://fontawesome.com License - https://fontawesome.com/license (Commercial License) Copyright 2023 Fonticons, Inc. --><path d="M192 144h128c4.406 0 8-3.578 8-8S324.4 128 320 128H192C187.6 128 184 131.6 184 136S187.6 144 192 144zM256 96c26.5 0 48-21.5 48-48S282.5 0 256 0S208 21.5 208 48S229.5 96 256 96zM256 16c17.64 0 32 14.36 32 32s-14.36 32-32 32s-32-14.36-32-32S238.4 16 256 16zM504 40h-32v-32C472 3.578 468.4 0 464 0s-8 3.578-8 8v32h-32C419.6 40 416 43.58 416 48s3.594 8 8 8h32v32C456 92.42 459.6 96 464 96s8-3.578 8-8v-32h32C508.4 56 512 52.42 512 48S508.4 40 504 40zM136 208h240C380.4 208 384 204.4 384 200S380.4 192 376 192h-240C131.6 192 128 195.6 128 200S131.6 208 136 208zM192 336h128c4.406 0 8-3.578 8-8S324.4 320 320 320H192c-4.406 0-8 3.578-8 8S187.6 336 192 336zM408 256h-304C99.59 256 96 259.6 96 264S99.59 272 104 272h304C412.4 272 416 268.4 416 264S412.4 256 408 256zM192 400h128c4.406 0 8-3.578 8-8S324.4 384 320 384H192c-4.406 0-8 3.578-8 8S187.6 400 192 400zM376 448h-240C113.9 448 96 465.9 96 488v16C96 508.4 99.59 512 104 512s8-3.578 8-8v-16c0-13.23 10.78-24 24-24h240c13.22 0 24 10.77 24 24v16c0 4.422 3.594 8 8 8S416 508.4 416 504v-16C416 465.9 398.1 448 376 448zM88 136h-32v-32C56 99.58 52.41 96 48 96S40 99.58 40 104v32h-32C3.594 136 0 139.6 0 144s3.594 8 8 8h32v32C40 188.4 43.59 192 48 192s8-3.578 8-8v-32h32C92.41 152 96 148.4 96 144S92.41 136 88 136z"/></svg>
